!!!COM: Anon.
!!!OTL: Dezoito anos de idade
!!!OTL: Romanceiro Folclorico do Brasil
!!!CNT: Brasil
!!!OCY: Brasil
!!!ODT: <1971///
!!!PSR: Irmaos Vitale
!!!PSP: Sao Paulo, Brasil
!!!PDT: 1951///
!!!PPE: Rossini Tavares de Lima
!!!PPG: page 68
!! Romance: Donzela
!! Place: Sao Jose dos Campos, Sao Paulo, Brasil
**kern
*clefG2
*k[b-e-a-]
*M3/4
*MM112
4G
=
4c
8c
8d
8e-
8f
=
4g
4g
4g
=
4a-
8a-
8a-
8cc
8a-
=
2g
4a-
=
4f
8d
8e-
8f
8g
=
4e-
4c
4g
=
4d
8Bn
8c
8d
8e-
=
2c
==
*-
